icons/box-open.svg

<?xml version="1.0" encoding="UTF-8"?><svg xmlns="http://www.w3.org/2000/svg" viewBox="0 0 50 50"><g id="uuid-abe39fa2-8f67-4ee0-849a-5df12439971f"><path d="M49.28,17.7l-5.6-2.7,5.37-2.77c.17-.09,.27-.26,.27-.45s-.11-.36-.28-.44L32.42,3.1c-.14-.07-.3-.07-.44,0l-6.46,3.15-7.55-3.64c-.14-.07-.3-.07-.44,0L.93,10.91c-.17,.08-.27,.25-.28,.44s.1,.36,.27,.45l6.33,3.34L.72,18.32c-.17,.08-.28,.26-.28,.45,0,.19,.1,.36,.27,.45l5.97,3.05s-.01,.05-.01,.08v15.88c0,.19,.11,.37,.28,.45l17.87,8.73h.01c.06,.03,.13,.05,.21,.05s.14-.02,.21-.05h.01l17.81-8.81c.17-.08,.28-.26,.28-.45V21.85l5.95-3.26c.16-.09,.26-.26,.26-.45,0-.19-.11-.36-.28-.44ZM32.19,4.1l15.52,7.69-5.16,2.66-15.89-7.66,5.53-2.69Zm-7.05,19.33L9.47,15.17,25.52,7.35l15.92,7.68-16.3,8.4ZM2.25,11.37L17.75,3.61l6.62,3.19L8.37,14.59l-6.12-3.23Zm6.1,4.35l15.7,8.28-5.86,3.02-10.87-5.54-5.27-2.69,6.29-3.07Zm-.68,7.05l10.3,5.25c.14,.07,.31,.07,.46,0l6.12-3.15v21.29L7.67,37.91v-15.15Zm34.68,15.06l-16.81,8.32V24.77l6.11,3.22c.15,.08,.33,.08,.47,0l10.23-5.6v15.43Zm.22-16.69l-10.69,5.85-5.67-2.99,16.35-8.43,5.41,2.61-5.4,2.96Z"/></g><g id="uuid-385799e1-5ab9-4009-9968-8d8811047ee3"><text transform="translate(0 55.01)" font-family="Roboto-Regular, Roboto" font-size="6"><tspan x="0" y="0">b</tspan><tspan x="3.37" y="0" letter-spacing="-.01em">o</tspan><tspan x="6.73" y="0">x-open</tspan></text></g></svg>

<svg xmlns="http://www.w3.org/2000/svg" viewBox="0 0 50 50"><defs><style>.cls-1{font-size:6px;font-family:Roboto-Regular, Roboto;}.cls-2{letter-spacing:-0.01em;}</style></defs><g id="ICONS"><path d="M49.28,17.7,43.68,15l5.37-2.77a.5.5,0,0,0,.27-.45.49.49,0,0,0-.28-.44L32.42,3.1a.49.49,0,0,0-.44,0L25.52,6.24,18,2.6a.49.49,0,0,0-.44,0L.93,10.91a.49.49,0,0,0-.28.44.5.5,0,0,0,.27.45l6.33,3.33L.72,18.32a.49.49,0,0,0-.28.44.47.47,0,0,0,.27.45l6,3.05s0,0,0,.08V38.22a.5.5,0,0,0,.28.45L24.82,47.4h0a.46.46,0,0,0,.2.05.46.46,0,0,0,.21-.05h0l17.81-8.81a.51.51,0,0,0,.28-.45V21.85l6-3.26a.52.52,0,0,0,.26-.45A.51.51,0,0,0,49.28,17.7ZM32.19,4.1l15.52,7.69-5.16,2.66L26.66,6.79Zm-7,19.33L9.47,15.17l16-7.82L41.44,15ZM2.25,11.37l15.5-7.76L24.37,6.8l-16,7.79Zm6.1,4.34L24.05,24,18.2,27,7.32,21.46,2.06,18.78Zm-.68,7.05L18,28a.47.47,0,0,0,.46,0l6.11-3.15V46.15L7.67,37.91ZM42.36,37.83,25.54,46.15V24.77L31.66,28a.49.49,0,0,0,.47,0l10.23-5.6Zm.21-16.69L31.88,27l-5.66-3,16.34-8.43L48,18.18Z"/></g><g id="LABELS"><text class="cls-1" transform="translate(0.01 55.01)">b<tspan class="cls-2" x="3.37" y="0">o</tspan><tspan x="6.73" y="0">x-open</tspan></text></g></svg>
